icon_installer/data/icons/scalable/actions/show-dock-usb-symbolic.svg

<?xml version="1.0" encoding="UTF-8"?>
<svg height="16px" viewBox="0 0 16 16" width="16px" xmlns="http://www.w3.org/2000/svg">
    <g fill="#2e3436">
        <path d="m 3.058594 9 c -1.105469 0 -2 -0.894531 -2 -2 v -1 h 13.960937 v 1 c 0 1.105469 -0.894531 2 -2 2 z m 0 0"/>
        <path d="m 4 7 v -4 c 0 -0.546875 0.453125 -1 1 -1 h 6 c 0.546875 0 1 0.453125 1 1 v 4 h 2 v -4 c 0 -1.660156 -1.339844 -3 -3 -3 h -6 c -1.660156 0 -3 1.339844 -3 3 v 4 z m 0 0"/>
        <path d="m 2 6 v 2.5 c 0 1.382812 1.117188 2.5 2.5 2.5 h 7.976562 c 0.5625 0 1.023438 0.460938 1.023438 1.015625 c -0.007812 0.550781 -0.464844 0.992187 -1.023438 0.984375 h -6.476562 v 1 h 6.46875 c 1.105469 0.015625 2.015625 -0.863281 2.03125 -1.976562 c 0 -1.121094 -0.902344 -2.023438 -2.023438 -2.023438 h -7.976562 c -0.824219 0 -1.5 -0.675781 -1.5 -1.5 v -2.5 z m 0 0"/>
        <path d="m 2.5 13 h 4 c 0.828125 0 1.5 0.671875 1.5 1.5 s -0.671875 1.5 -1.5 1.5 h -4 c -0.828125 0 -1.5 -0.671875 -1.5 -1.5 s 0.671875 -1.5 1.5 -1.5 z m 0 0"/>
    </g>
</svg>

<svg xmlns="http://www.w3.org/2000/svg" width="16" height="16"><g fill="#2e3436"><path d="M3.059 9c-1.106 0-2-.895-2-2V6h13.96v1c0 1.105-.894 2-2 2zm0 0"/><path d="M4 7V3c0-.547.453-1 1-1h6c.547 0 1 .453 1 1v4h2V3c0-1.66-1.34-3-3-3H5C3.34 0 2 1.34 2 3v4zm0 0"/><path d="M2 6v2.5C2 9.883 3.117 11 4.5 11h7.977c.562 0 1.023.46 1.023 1.016-.008.55-.465.992-1.023.984H6v1h6.469a2 2 0 0 0 2.031-1.977A2.019 2.019 0 0 0 12.477 10H4.5C3.676 10 3 9.324 3 8.5V6zm0 0"/><path d="M2.5 13h4a1.5 1.5 0 0 1 0 3h-4a1.5 1.5 0 0 1 0-3zm0 0"/></g></svg>
